images/3235235.svg

<?xml version="1.0" encoding="UTF-8"?>
<svg xmlns="http://www.w3.org/2000/svg" xmlns:xlink="http://www.w3.org/1999/xlink" width="300pt" height="300pt" viewBox="0 0 300 300" version="1.1">
<defs>
<g>
<symbol overflow="visible" id="glyph0-0">
<path style="stroke:none;" d="M 0.640625 2.296875 L 0.640625 -9.171875 L 7.140625 -9.171875 L 7.140625 2.296875 Z M 1.375 1.578125 L 6.421875 1.578125 L 6.421875 -8.4375 L 1.375 -8.4375 Z M 1.375 1.578125 "/>
</symbol>
<symbol overflow="visible" id="glyph0-1">
<path style="stroke:none;" d="M 1.28125 -9.484375 L 3 -9.484375 L 7.203125 -1.546875 L 7.203125 -9.484375 L 8.453125 -9.484375 L 8.453125 0 L 6.71875 0 L 2.515625 -7.921875 L 2.515625 0 L 1.28125 0 Z M 1.28125 -9.484375 "/>
</symbol>
<symbol overflow="visible" id="glyph0-2">
<path style="stroke:none;" d="M 1.28125 -9.484375 L 2.5625 -9.484375 L 2.5625 -5.59375 L 7.21875 -5.59375 L 7.21875 -9.484375 L 8.5 -9.484375 L 8.5 0 L 7.21875 0 L 7.21875 -4.515625 L 2.5625 -4.515625 L 2.5625 0 L 1.28125 0 Z M 1.28125 -9.484375 "/>
</symbol>
<symbol overflow="visible" id="glyph0-3">
<path style="stroke:none;" d="M 1.28125 -9.484375 L 6.71875 -9.484375 L 6.71875 -8.390625 L 2.5625 -8.390625 L 2.5625 -5.609375 L 6.3125 -5.609375 L 6.3125 -4.53125 L 2.5625 -4.53125 L 2.5625 0 L 1.28125 0 Z M 1.28125 -9.484375 "/>
</symbol>
</g>
</defs>
<g id="surface37237">
<rect x="0" y="0" width="300" height="300" style="fill:rgb(100%,100%,100%);fill-opacity:1;stroke:none;"/>
<path style="fill:none;stroke-width:1.2;stroke-linecap:butt;stroke-linejoin:miter;stroke:rgb(0%,0%,0%);stroke-opacity:1;stroke-miterlimit:10;" d="M 261.484375 200.9375 L 246.957031 172.003906 "/>
<path style="fill:none;stroke-width:1.2;stroke-linecap:butt;stroke-linejoin:miter;stroke:rgb(0%,0%,0%);stroke-opacity:1;stroke-miterlimit:10;" d="M 246.957031 172.003906 L 214.640625 170.121094 "/>
<path style="fill:none;stroke-width:1.2;stroke-linecap:butt;stroke-linejoin:miter;stroke:rgb(0%,0%,0%);stroke-opacity:1;stroke-miterlimit:10;" d="M 244.167969 164.210938 L 218.3125 162.703125 "/>
<path style="fill:none;stroke-width:1.2;stroke-linecap:butt;stroke-linejoin:miter;stroke:rgb(0%,0%,0%);stroke-opacity:1;stroke-miterlimit:10;" d="M 264.75 144.957031 L 246.957031 172.003906 "/>
<path style="fill:none;stroke-width:1.2;stroke-linecap:butt;stroke-linejoin:miter;stroke:rgb(0%,0%,0%);stroke-opacity:1;stroke-miterlimit:10;" d="M 214.640625 170.121094 L 200.109375 141.1875 "/>
<path style="fill:none;stroke-width:1.2;stroke-linecap:butt;stroke-linejoin:miter;stroke:rgb(0%,0%,0%);stroke-opacity:1;stroke-miterlimit:10;" d="M 200.109375 141.1875 L 217.902344 114.140625 "/>
<path style="fill:none;stroke-width:1.2;stroke-linecap:butt;stroke-linejoin:miter;stroke:rgb(0%,0%,0%);stroke-opacity:1;stroke-miterlimit:10;" d="M 208.253906 142.671875 L 222.488281 121.03125 "/>
<path style="fill:none;stroke-width:1.2;stroke-linecap:butt;stroke-linejoin:miter;stroke:rgb(0%,0%,0%);stroke-opacity:1;stroke-miterlimit:10;" d="M 200.109375 141.1875 L 167.792969 139.304688 "/>
<path style="fill:none;stroke-width:1.2;stroke-linecap:butt;stroke-linejoin:miter;stroke:rgb(0%,0%,0%);stroke-opacity:1;stroke-miterlimit:10;" d="M 217.902344 114.140625 L 250.222656 116.027344 "/>
<path style="fill:none;stroke-width:1.2;stroke-linecap:butt;stroke-linejoin:miter;stroke:rgb(0%,0%,0%);stroke-opacity:1;stroke-miterlimit:10;" d="M 250.222656 116.027344 L 264.75 144.957031 "/>
<path style="fill:none;stroke-width:1.2;stroke-linecap:butt;stroke-linejoin:miter;stroke:rgb(0%,0%,0%);stroke-opacity:1;stroke-miterlimit:10;" d="M 244.867188 122.335938 L 256.488281 145.484375 "/>
<path style="fill:none;stroke-width:1.2;stroke-linecap:butt;stroke-linejoin:miter;stroke:rgb(0%,0%,0%);stroke-opacity:1;stroke-miterlimit:10;" d="M 167.792969 139.304688 L 160.527344 124.835938 "/>
<path style="fill:none;stroke-width:1.2;stroke-linecap:butt;stroke-linejoin:miter;stroke:rgb(0%,0%,100%);stroke-opacity:1;stroke-miterlimit:10;" d="M 160.527344 124.835938 L 153.265625 110.371094 "/>
<path style="fill:none;stroke-width:1.2;stroke-linecap:butt;stroke-linejoin:miter;stroke:rgb(0%,0%,100%);stroke-opacity:1;stroke-miterlimit:10;" d="M 153.265625 110.371094 L 137.105469 109.429688 "/>
<path style="fill:none;stroke-width:1.2;stroke-linecap:butt;stroke-linejoin:miter;stroke:rgb(0%,0%,0%);stroke-opacity:1;stroke-miterlimit:10;" d="M 137.105469 109.429688 L 120.945312 108.488281 "/>
<path style=" stroke:none;fill-rule:nonzero;fill:rgb(100%,100%,100%);fill-opacity:1;" d="M 143.265625 102.371094 L 163.265625 102.371094 L 163.265625 118.371094 L 143.265625 118.371094 Z M 143.265625 102.371094 "/>
<g style="fill:rgb(0%,0%,100%);fill-opacity:1;">
  <use xlink:href="#glyph0-1" x="143.265625" y="114.74707"/>
  <use xlink:href="#glyph0-2" x="153.235352" y="114.74707"/>
</g>
<path style="fill:none;stroke-width:1.2;stroke-linecap:butt;stroke-linejoin:miter;stroke:rgb(0%,0%,0%);stroke-opacity:1;stroke-miterlimit:10;" d="M 120.945312 108.488281 L 113.679688 94.019531 "/>
<path style="fill:none;stroke-width:1.2;stroke-linecap:butt;stroke-linejoin:miter;stroke:rgb(0%,0%,100%);stroke-opacity:1;stroke-miterlimit:10;" d="M 113.679688 94.019531 L 106.417969 79.554688 "/>
<path style="fill:none;stroke-width:1.2;stroke-linecap:butt;stroke-linejoin:miter;stroke:rgb(0%,0%,0%);stroke-opacity:1;stroke-miterlimit:10;" d="M 112.683594 109.011719 L 106.875 97.4375 "/>
<path style="fill:none;stroke-width:1.2;stroke-linecap:butt;stroke-linejoin:miter;stroke:rgb(0%,0%,100%);stroke-opacity:1;stroke-miterlimit:10;" d="M 106.875 97.4375 L 101.0625 85.867188 "/>
<path style="fill:none;stroke-width:1.2;stroke-linecap:butt;stroke-linejoin:miter;stroke:rgb(0%,0%,0%);stroke-opacity:1;stroke-miterlimit:10;" d="M 103.152344 135.535156 L 120.945312 108.488281 "/>
<path style="fill:none;stroke-width:1.2;stroke-linecap:butt;stroke-linejoin:miter;stroke:rgb(0%,0%,100%);stroke-opacity:1;stroke-miterlimit:10;" d="M 106.417969 79.554688 L 90.257812 78.613281 "/>
<path style="fill:none;stroke-width:1.2;stroke-linecap:butt;stroke-linejoin:miter;stroke:rgb(0%,0%,0%);stroke-opacity:1;stroke-miterlimit:10;" d="M 90.257812 78.613281 L 74.097656 77.671875 "/>
<path style=" stroke:none;fill-rule:nonzero;fill:rgb(100%,100%,100%);fill-opacity:1;" d="M 101.417969 71.554688 L 111.417969 71.554688 L 111.417969 87.554688 L 101.417969 87.554688 Z M 101.417969 71.554688 "/>
<g style="fill:rgb(0%,0%,100%);fill-opacity:1;">
  <use xlink:href="#glyph0-1" x="101.417969" y="83.930664"/>
</g>
<path style="fill:none;stroke-width:1.2;stroke-linecap:butt;stroke-linejoin:miter;stroke:rgb(0%,0%,0%);stroke-opacity:1;stroke-miterlimit:10;" d="M 74.097656 77.671875 L 65.203125 91.195312 "/>
<path style="fill:none;stroke-width:1.2;stroke-linecap:butt;stroke-linejoin:miter;stroke:rgb(0%,0%,100%);stroke-opacity:1;stroke-miterlimit:10;" d="M 65.203125 91.195312 L 56.304688 104.71875 "/>
<path style="fill:none;stroke-width:1.2;stroke-linecap:butt;stroke-linejoin:miter;stroke:rgb(0%,0%,0%);stroke-opacity:1;stroke-miterlimit:10;" d="M 78.683594 84.5625 L 71.566406 95.378906 "/>
<path style="fill:none;stroke-width:1.2;stroke-linecap:butt;stroke-linejoin:miter;stroke:rgb(0%,0%,100%);stroke-opacity:1;stroke-miterlimit:10;" d="M 71.566406 95.378906 L 64.449219 106.199219 "/>
<path style="fill:none;stroke-width:1.2;stroke-linecap:butt;stroke-linejoin:miter;stroke:rgb(0%,0%,100%);stroke-opacity:1;stroke-miterlimit:10;" d="M 56.304688 104.71875 L 63.570312 119.183594 "/>
<path style="fill:none;stroke-width:1.2;stroke-linecap:butt;stroke-linejoin:miter;stroke:rgb(0%,0%,0%);stroke-opacity:1;stroke-miterlimit:10;" d="M 63.570312 119.183594 L 70.832031 133.648438 "/>
<path style=" stroke:none;fill-rule:nonzero;fill:rgb(100%,100%,100%);fill-opacity:1;" d="M 51.304688 96.71875 L 61.304688 96.71875 L 61.304688 112.71875 L 51.304688 112.71875 Z M 51.304688 96.71875 "/>
<g style="fill:rgb(0%,0%,100%);fill-opacity:1;">
  <use xlink:href="#glyph0-1" x="51.304688" y="109.094727"/>
</g>
<path style="fill:none;stroke-width:1.2;stroke-linecap:butt;stroke-linejoin:miter;stroke:rgb(0%,0%,0%);stroke-opacity:1;stroke-miterlimit:10;" d="M 70.832031 133.648438 L 103.152344 135.535156 "/>
<path style="fill:none;stroke-width:1.2;stroke-linecap:butt;stroke-linejoin:miter;stroke:rgb(0%,0%,0%);stroke-opacity:1;stroke-miterlimit:10;" d="M 74.507812 126.234375 L 100.363281 127.742188 "/>
<path style="fill:none;stroke-width:1.2;stroke-linecap:butt;stroke-linejoin:miter;stroke:rgb(0%,0%,0%);stroke-opacity:1;stroke-miterlimit:10;" d="M 103.152344 135.535156 L 117.679688 164.464844 "/>
<path style="fill:none;stroke-width:1.2;stroke-linecap:butt;stroke-linejoin:miter;stroke:rgb(0%,0%,0%);stroke-opacity:1;stroke-miterlimit:10;" d="M 117.679688 164.464844 L 150 166.351562 "/>
<path style="fill:none;stroke-width:1.2;stroke-linecap:butt;stroke-linejoin:miter;stroke:rgb(0%,0%,0%);stroke-opacity:1;stroke-miterlimit:10;" d="M 120.46875 172.257812 L 146.324219 173.765625 "/>
<path style="fill:none;stroke-width:1.2;stroke-linecap:butt;stroke-linejoin:miter;stroke:rgb(0%,0%,0%);stroke-opacity:1;stroke-miterlimit:10;" d="M 99.890625 191.511719 L 117.679688 164.464844 "/>
<path style="fill:none;stroke-width:1.2;stroke-linecap:butt;stroke-linejoin:miter;stroke:rgb(0%,0%,0%);stroke-opacity:1;stroke-miterlimit:10;" d="M 150 166.351562 L 164.527344 195.28125 "/>
<path style="fill:none;stroke-width:1.2;stroke-linecap:butt;stroke-linejoin:miter;stroke:rgb(0%,0%,0%);stroke-opacity:1;stroke-miterlimit:10;" d="M 164.527344 195.28125 L 146.734375 222.328125 "/>
<path style="fill:none;stroke-width:1.2;stroke-linecap:butt;stroke-linejoin:miter;stroke:rgb(0%,0%,0%);stroke-opacity:1;stroke-miterlimit:10;" d="M 156.382812 193.800781 L 142.152344 215.4375 "/>
<path style="fill:none;stroke-width:1.2;stroke-linecap:butt;stroke-linejoin:miter;stroke:rgb(0%,0%,0%);stroke-opacity:1;stroke-miterlimit:10;" d="M 146.734375 222.328125 L 114.417969 220.445312 "/>
<path style="fill:none;stroke-width:1.2;stroke-linecap:butt;stroke-linejoin:miter;stroke:rgb(0%,0%,0%);stroke-opacity:1;stroke-miterlimit:10;" d="M 114.417969 220.445312 L 99.890625 191.511719 "/>
<path style="fill:none;stroke-width:1.2;stroke-linecap:butt;stroke-linejoin:miter;stroke:rgb(0%,0%,0%);stroke-opacity:1;stroke-miterlimit:10;" d="M 119.769531 214.132812 L 108.148438 190.988281 "/>
<path style="fill:none;stroke-width:1.2;stroke-linecap:butt;stroke-linejoin:miter;stroke:rgb(0%,0%,0%);stroke-opacity:1;stroke-miterlimit:10;" d="M 99.890625 191.511719 L 67.570312 189.628906 "/>
<path style="fill:none;stroke-width:1.2;stroke-linecap:butt;stroke-linejoin:miter;stroke:rgb(0%,0%,0%);stroke-opacity:1;stroke-miterlimit:10;" d="M 67.570312 189.628906 L 51.410156 188.6875 "/>
<path style="fill:none;stroke-width:1.2;stroke-linecap:butt;stroke-linejoin:miter;stroke:rgb(20%,80%,80%);stroke-opacity:1;stroke-miterlimit:10;" d="M 51.410156 188.6875 L 35.25 187.742188 "/>
<path style="fill:none;stroke-width:1.2;stroke-linecap:butt;stroke-linejoin:miter;stroke:rgb(0%,0%,0%);stroke-opacity:1;stroke-miterlimit:10;" d="M 67.570312 189.628906 L 66.628906 205.789062 "/>
<path style="fill:none;stroke-width:1.2;stroke-linecap:butt;stroke-linejoin:miter;stroke:rgb(20%,80%,80%);stroke-opacity:1;stroke-miterlimit:10;" d="M 66.628906 205.789062 L 65.683594 221.949219 "/>
<path style="fill:none;stroke-width:1.2;stroke-linecap:butt;stroke-linejoin:miter;stroke:rgb(0%,0%,0%);stroke-opacity:1;stroke-miterlimit:10;" d="M 67.570312 189.628906 L 68.511719 173.46875 "/>
<path style="fill:none;stroke-width:1.2;stroke-linecap:butt;stroke-linejoin:miter;stroke:rgb(20%,80%,80%);stroke-opacity:1;stroke-miterlimit:10;" d="M 68.511719 173.46875 L 69.453125 157.308594 "/>
<path style=" stroke:none;fill-rule:nonzero;fill:rgb(100%,100%,100%);fill-opacity:1;" d="M 27.25 179.742188 L 35.25 179.742188 L 35.25 195.742188 L 27.25 195.742188 Z M 27.25 179.742188 "/>
<g style="fill:rgb(20%,80%,80%);fill-opacity:1;">
  <use xlink:href="#glyph0-3" x="27.25" y="192.118164"/>
</g>
<path style=" stroke:none;fill-rule:nonzero;fill:rgb(100%,100%,100%);fill-opacity:1;" d="M 61.683594 213.949219 L 69.683594 213.949219 L 69.683594 229.949219 L 61.683594 229.949219 Z M 61.683594 213.949219 "/>
<g style="fill:rgb(20%,80%,80%);fill-opacity:1;">
  <use xlink:href="#glyph0-3" x="61.683594" y="226.325195"/>
</g>
<path style=" stroke:none;fill-rule:nonzero;fill:rgb(100%,100%,100%);fill-opacity:1;" d="M 65.453125 149.308594 L 73.453125 149.308594 L 73.453125 165.308594 L 65.453125 165.308594 Z M 65.453125 149.308594 "/>
<g style="fill:rgb(20%,80%,80%);fill-opacity:1;">
  <use xlink:href="#glyph0-3" x="65.453125" y="161.68457"/>
</g>
</g>
</svg>

<svg xmlns="http://www.w3.org/2000/svg" xmlns:xlink="http://www.w3.org/1999/xlink" width="300pt" height="300pt" viewBox="0 0 300 300"><defs><symbol overflow="visible"><path d="M.64 2.297v-11.47h6.5v11.47zm.735-.72h5.047V-8.436H1.375zm0 0"/></symbol><symbol overflow="visible" id="a"><path d="M1.28-9.484H3l4.203 7.937v-7.937h1.25V0H6.72L2.515-7.922V0H1.28zm0 0"/></symbol><symbol overflow="visible" id="b"><path d="M1.28-9.484h1.282v3.89H7.22v-3.89H8.5V0H7.22v-4.516H2.562V0H1.28zm0 0"/></symbol><symbol overflow="visible" id="c"><path d="M1.28-9.484h5.44v1.093H2.562v2.78h3.75v1.08h-3.75V0H1.28zm0 0"/></symbol></defs><g><path fill="#fff" d="M0 0h300v300H0z"/><path d="M261.484 200.938l-14.527-28.934M246.957 172.004l-32.316-1.883M244.168 164.21l-25.856-1.507M264.75 144.957l-17.793 27.047M214.64 170.12l-14.53-28.933M200.11 141.188L217.9 114.14M208.254 142.672l14.234-21.64M200.11 141.188l-32.317-1.883M217.902 114.14l32.32 1.887M250.223 116.027l14.527 28.93M244.867 122.336l11.62 23.148M167.793 139.305l-7.266-14.47" stroke-width="1.2" stroke="#000" stroke-miterlimit="10" fill="none"/><path d="M160.527 124.836l-7.26-14.465M153.266 110.37l-16.16-.94" stroke-width="1.2" stroke="#00f" stroke-miterlimit="10" fill="none"/><path d="M137.105 109.43l-16.16-.942" stroke-width="1.2" stroke="#000" stroke-miterlimit="10" fill="none"/><path d="M143.266 102.37h20v16h-20zm0 0" fill="#fff"/><g fill="#00f"><use xlink:href="#a" x="143.266" y="114.747"/><use xlink:href="#b" x="153.235" y="114.747"/></g><path d="M120.945 108.488L113.68 94.02" stroke-width="1.2" stroke="#000" stroke-miterlimit="10" fill="none"/><path d="M113.68 94.02l-7.262-14.465" stroke-width="1.2" stroke="#00f" stroke-miterlimit="10" fill="none"/><path d="M112.684 109.012l-5.81-11.575" stroke-width="1.2" stroke="#000" stroke-miterlimit="10" fill="none"/><path d="M106.875 97.438l-5.813-11.57" stroke-width="1.2" stroke="#00f" stroke-miterlimit="10" fill="none"/><path d="M103.152 135.535l17.793-27.047" stroke-width="1.2" stroke="#000" stroke-miterlimit="10" fill="none"/><path d="M106.418 79.555l-16.16-.942" stroke-width="1.2" stroke="#00f" stroke-miterlimit="10" fill="none"/><path d="M90.258 78.613l-16.16-.94" stroke-width="1.2" stroke="#000" stroke-miterlimit="10" fill="none"/><path d="M101.418 71.555h10v16h-10zm0 0" fill="#fff"/><use xlink:href="#a" x="101.418" y="83.931" fill="#00f"/><path d="M74.098 77.672l-8.895 13.523" stroke-width="1.2" stroke="#000" stroke-miterlimit="10" fill="none"/><path d="M65.203 91.195l-8.898 13.524" stroke-width="1.2" stroke="#00f" stroke-miterlimit="10" fill="none"/><path d="M78.684 84.563L71.566 95.38" stroke-width="1.2" stroke="#000" stroke-miterlimit="10" fill="none"/><path d="M71.566 95.38L64.45 106.2M56.305 104.72l7.265 14.464" stroke-width="1.2" stroke="#00f" stroke-miterlimit="10" fill="none"/><path d="M63.57 119.184l7.262 14.464" stroke-width="1.2" stroke="#000" stroke-miterlimit="10" fill="none"/><path d="M51.305 96.72h10v16h-10zm0 0" fill="#fff"/><use xlink:href="#a" x="51.305" y="109.095" fill="#00f"/><path d="M70.832 133.648l32.32 1.887M74.508 126.234l25.855 1.508M103.152 135.535l14.528 28.93M117.68 164.465l32.32 1.887M120.47 172.258l25.854 1.508M99.89 191.512l17.79-27.047M150 166.352l14.527 28.93M164.527 195.28l-17.793 27.048M156.383 193.8l-14.23 21.637M146.734 222.328l-32.316-1.883M114.418 220.445L99.89 191.512M119.77 214.133l-11.622-23.145M99.89 191.512l-32.32-1.883M67.57 189.63l-16.16-.942" stroke-width="1.2" stroke="#000" stroke-miterlimit="10" fill="none"/><path d="M51.41 188.688l-16.16-.946" stroke-width="1.2" stroke="#3cc" stroke-miterlimit="10" fill="none"/><path d="M67.57 189.63l-.94 16.16" stroke-width="1.2" stroke="#000" stroke-miterlimit="10" fill="none"/><path d="M66.63 205.79l-.946 16.16" stroke-width="1.2" stroke="#3cc" stroke-miterlimit="10" fill="none"/><path d="M67.57 189.63l.942-16.16" stroke-width="1.2" stroke="#000" stroke-miterlimit="10" fill="none"/><path d="M68.512 173.47l.94-16.16" stroke-width="1.2" stroke="#3cc" stroke-miterlimit="10" fill="none"/><path d="M27.25 179.742h8v16h-8zm0 0" fill="#fff"/><use xlink:href="#c" x="27.25" y="192.118" fill="#3cc"/><path d="M61.684 213.95h8v16h-8zm0 0" fill="#fff"/><use xlink:href="#c" x="61.684" y="226.325" fill="#3cc"/><path d="M65.453 149.31h8v16h-8zm0 0" fill="#fff"/><use xlink:href="#c" x="65.453" y="161.685" fill="#3cc"/></g></svg>
